X: 39426
T: Tara's
R: hornpipe
M: 4/4
K: Dmajor
D2 FA dAFD|E2 GB edcB|A2 FA fedc|dcBc dgfe|
D2 FA dAFD|E2 GB edcB|A2 FA fedc|dcBc defg||
a2 ag fgaf|gfef g2 fe|df ~f2 dfed|cAA^G A3 F|
G3 F GA (3Bcd|AFDF A2 GF|G2 GF GABd|ABcB AGFE||

